svg/color/oot.svg

<svg height="32" viewBox="0 0 32 32" width="32" xmlns="http://www.w3.org/2000/svg"><g fill="none" fill-rule="evenodd"><circle cx="16" cy="16" fill="#25aae1" fill-rule="nonzero" r="16"/><path d="m16.3455283 24.9929957c-1.638648.0177041-3.0162105-.2777961-4.3149193-.9225807-.0800055-.0397742-.1403335-.0420772-.220435.0021111-.7979908.4402997-1.6440713.7433326-2.55028788.8620317-.38414138.0503295-.77217024.1044014-1.15803939.0256685-1.04655008-.2135528-1.45751993-1.4551912-.74678159-2.2603202.46525069-.5270451.79549517-1.126058 1.00959495-1.7930087.02423681-.0753743.01545397-.1324689-.02634852-.199447-.7117942-1.1410273-1.14349731-2.3834814-1.27778361-3.7183902-.29396126-2.9216095.61590283-5.4249414 2.71020284-7.47689059 1.3521258-1.32473738 2.9892861-2.13063409 4.8630551-2.40459195 2.5374736-.3709706 4.848849.21566385 6.8796054 1.78840267 1.8123852 1.40366217 2.9400926 3.25328557 3.3337847 5.51149477.4982223 2.85751-.2234106 5.4036869-2.1405179 7.5793729-1.4168213 1.6079071-3.2165842 2.5629693-5.334689 2.902418-.4015151.0643393-.8103252.0826671-1.0264408.1037297zm-6.42880898-2.3880147c.0640449-.0184452.10201318-.0279876.13907498-.0401955.5741644-.1891423 1.1020415-.4708834 1.5945099-.8170757.3519003-.2474097.6984146-.2605771 1.0699923-.0478187.7957885.4556902 1.6486894.7392971 2.5633422.8370135 1.487804.1588625 2.8907124-.1238381 4.1451604-.9290791 2.1704873-1.3932988 3.2498651-3.3971521 3.1331338-5.991782-.0747102-1.6619257-.725771-3.0973391-1.904869-4.2656182-1.421306-1.40822551-3.1496649-2.05049916-5.1528676-1.91200091-1.3509686.09345167-2.5708079.55799123-3.6087511 1.42448491-2.01306802 1.6806374-2.79077886 3.8335975-2.34486429 6.4175655.14670066.8501277.48500279 1.6302065.96355299 2.3486596.1834958.2754505.2470608.5678535.1709108.8987459-.1149182.4994574-.2746838.9823887-.4799367 1.4508199-.088735.2024697-.1847223.4016875-.28838868.6262808zm6.09068538-10.4117368c.1977339.4020607.3836827.7794925.5689917 1.1572441.2013068.410377.406613.8189948.6000275 1.2331035.0504467.1080585.1173179.1460149.2294098.1615813.8398893.1168546 1.6788721.2397331 2.5180682.361119.0291161.0042115.0576457.0124212.0940143.0204709-.1548063.1595555-.298894.3147397-.450234.4625671-.4735376.4625138-.9484617.9236415-1.4262121 1.381784-.0838823.0803908-.1167313.1544378-.0948142.2777428.1500069.8432507.2896152 1.688314.4322097 2.5328974.0035729.0213771.003093.043394.0057593.0839093-.0453807-.018072-.0806294-.028414-.1124652-.0452065-.7420355-.3915588-1.4847643-.7819448-2.2244002-1.1780881-.1006267-.053896-.1780565-.059067-.2816162-.0037317-.7439553.3974761-1.4914301.7882352-2.2378918 1.1808602-.0305559.0160995-.0623384.0299066-.1210507.0577876.0373818-.2268856.0693242-.4298351.1044129-.6323048.1183844-.6820959.2352224-1.3645117.3596326-2.0454881.0185576-.1013414-.0374884-.1477741-.0928411-.2020965-.5960281-.5851258-1.1925895-1.1697718-1.7905373-1.7528719-.0341289-.0332651-.0820159-.0524033-.1235038-.0780985.0102387-.0162594.0205307-.0324655.0307693-.0487249.3052931-.0437672.6105862-.0875876.9159327-.1312482.5757107-.0824166 1.1512082-.1665391 1.7274523-.2454905.0924145-.0126877.134329-.0615726.1724573-.1394579.3771769-.7690438.7576068-1.5364883 1.1375034-2.3042526.0133849-.027028.0296494-.0525633.0589256-.104007z" fill="#fff"/></g></svg>

<svg xmlns="http://www.w3.org/2000/svg" width="32" height="32" viewBox="0 0 32 32">
  <g fill="none" fill-rule="evenodd">
    <circle cx="16" cy="16" r="16" fill="#25AAE1" fill-rule="nonzero"/>
    <path fill="#FFF" d="M16.3455283,24.9929957 C14.7068803,25.0106998 13.3293178,24.7151996 12.030609,24.070415 C11.9506035,24.0306408 11.8902755,24.0283378 11.810174,24.0725261 C11.0121832,24.5128258 10.1661027,24.8158587 9.25988612,24.9345578 C8.87574474,24.9848873 8.48771588,25.0389592 8.10184673,24.9602263 C7.05529665,24.7466735 6.6443268,23.5050351 7.35506514,22.6999061 C7.82031583,22.172861 8.15056031,21.5738481 8.36466009,20.9068974 C8.3888969,20.8315231 8.38011406,20.7744285 8.33831157,20.7074504 C7.62651737,19.5664231 7.19481426,18.323969 7.06052796,16.9890602 C6.7665667,14.0674507 7.67643079,11.5641188 9.7707308,9.51216961 C11.1228566,8.18743223 12.7600169,7.38153552 14.6337859,7.10757766 C17.1712595,6.73660706 19.4826349,7.32324151 21.5133913,8.89598033 C23.3257765,10.2996425 24.4534839,12.1492659 24.847176,14.4074751 C25.3453983,17.2649851 24.6237654,19.811162 22.7066581,21.986848 C21.2898368,23.5947551 19.4900739,24.5498173 17.3719691,24.889266 C16.970454,24.9536053 16.5616439,24.9719331 16.3455283,24.9929957 Z M9.91671932,22.604981 C9.98076422,22.5865358 10.0187325,22.5769934 10.0557943,22.5647855 C10.6299587,22.3756432 11.1578358,22.0939021 11.6503042,21.7477098 C12.0022045,21.5003001 12.3487188,21.4871327 12.7202965,21.6998911 C13.516085,22.1555813 14.3689859,22.4391882 15.2836387,22.5369046 C16.7714427,22.6957671 18.1743511,22.4130665 19.4287991,21.6078255 C21.5992864,20.2145267 22.6786642,18.2106734 22.5619329,15.6160435 C22.4872227,13.9541178 21.8361619,12.5187044 20.6570639,11.3504253 C19.2357579,9.94219979 17.507399,9.29992614 15.5041963,9.43842439 C14.1532277,9.53187606 12.9333884,9.99641562 11.8954452,10.8629093 C9.88237718,12.5435467 9.10466634,14.6965068 9.55058091,17.2804748 C9.69728157,18.1306025 10.0355837,18.9106813 10.5141339,19.6291344 C10.6976297,19.9045849 10.7611947,20.1969879 10.6850447,20.5278803 C10.5701265,21.0273377 10.4103609,21.510269 10.205108,21.9787002 C10.116373,22.1811699 10.0203857,22.3803877 9.91671932,22.604981 Z M16.0074047,12.1932442 C16.2051386,12.5953049 16.3910874,12.9727367 16.5763964,13.3504883 C16.7777032,13.7608653 16.9830094,14.1694831 17.1764239,14.5835918 C17.2268706,14.6916503 17.2937418,14.7296067 17.4058337,14.7451731 C18.245723,14.8620277 19.0847058,14.9849062 19.9239019,15.1062921 C19.953018,15.1105036 19.9815476,15.1187133 20.0179162,15.126763 C19.8631099,15.2863185 19.7190222,15.4415027 19.5676822,15.5893301 C19.0941446,16.0518439 18.6192205,16.5129716 18.1414701,16.9711141 C18.0575878,17.0515049 18.0247388,17.1255519 18.0466559,17.2488569 C18.1966628,18.0921076 18.3362711,18.9371709 18.4788656,19.7817543 C18.4824385,19.8031314 18.4819586,19.8251483 18.4846249,19.8656636 C18.4392442,19.8475916 18.4039955,19.8372496 18.3721597,19.8204571 C17.6301242,19.4288983 16.8873954,19.0385123 16.1477595,18.642369 C16.0471328,18.588473 15.969703,18.583302 15.8661433,18.6386373 C15.122188,19.0361134 14.3747132,19.4268725 13.6282515,19.8194975 C13.5976956,19.835597 13.5659131,19.8494041 13.5072008,19.8772851 C13.5445826,19.6503995 13.576525,19.44745 13.6116137,19.2449803 C13.7299981,18.5628844 13.8468361,17.8804686 13.9712463,17.1994922 C13.9898039,17.0981508 13.9337579,17.0517181 13.8784052,16.9973957 C13.2823771,16.4122699 12.6858157,15.8276239 12.0878679,15.2445238 C12.053739,15.2112587 12.005852,15.1921205 11.9643641,15.1664253 C11.9746028,15.1501659 11.9848948,15.1339598 11.9951334,15.1177004 C12.3004265,15.0739332 12.6057196,15.0301128 12.9110661,14.9864522 C13.4867768,14.9040356 14.0622743,14.8199131 14.6385184,14.7409617 C14.7309329,14.728274 14.7728474,14.6793891 14.8109757,14.6015038 C15.1881526,13.83246 15.5685825,13.0650155 15.9484791,12.2972512 C15.961864,12.2702232 15.9781285,12.2446879 16.0074047,12.1932442 Z"/>
  </g>
</svg>
